Catalina-light/actions/22/path-exclusion.svg

<svg xmlns="http://www.w3.org/2000/svg" viewBox="0 0 22 22">
  <defs id="defs3051">
    <style type="text/css" id="current-color-scheme">
      .ColorScheme-Text {
        color:#4d4d4d;
      }
      .ColorScheme-Highlight {
        color:#3daee9;
      }
      </style>
  </defs>
 <path 
     style="fill:currentColor;fill-opacity:1;stroke:none" 
     d="M 13 3 A 6 6 0 0 0 7.0449219 8.3339844 L 3 8.3339844 L 3 19 L 13.666016 19 L 13.666016 14.958984 A 6 6 0 0 0 19 9 A 6 6 0 0 0 13 3 z M 13 4.3339844 A 4.6666667 4.6666667 0 0 1 17.666016 9 A 4.6666667 4.6666667 0 0 1 13.666016 13.615234 L 13.666016 8.3339844 L 8.3886719 8.3339844 A 4.6666667 4.6666667 0 0 1 13 4.3339844 z M 4.3339844 9.6660156 L 7.0410156 9.6660156 A 6 6 0 0 0 12.333984 14.955078 L 12.333984 17.666016 L 4.3339844 17.666016 L 4.3339844 9.6660156 z M 8.3847656 9.6660156 L 12.333984 9.6660156 L 12.333984 13.611328 A 4.6666667 4.6666667 0 0 1 8.3847656 9.6660156 z "
     class="ColorScheme-Text"
     />
 <path 
     style="fill:currentColor;fill-opacity:0.6;stroke:naone" 
     class="ColorScheme-Text"
     d="M 13 4.3339844 A 4.6666667 4.6666667 0 0 0 8.3339844 9 A 4.6666667 4.6666667 0 0 0 8.3847656 9.6660156 L 12.333984 9.6660156 L 12.333984 13.611328 A 4.6666667 4.6666667 0 0 0 13 13.666016 A 4.6666667 4.6666667 0 0 0 17.666016 9 A 4.6666667 4.6666667 0 0 0 13 4.3339844 z M 12.333984 13.611328 A 4.6666667 4.6666667 0 0 1 8.3847656 9.6660156 L 4.3339844 9.6660156 L 4.3339844 17.666016 L 12.333984 17.666016 L 12.333984 13.611328 z "
     />
</svg>

<svg viewBox="0 0 22 22" xmlns="http://www.w3.org/2000/svg">
<defs>
<style id="current-color-scheme" type="text/css">.ColorScheme-Text {
        color:#4d4d4d;
      }
      .ColorScheme-Highlight {
        color:#3daee9;
      }</style>
</defs>
<path class="ColorScheme-Text" d="m13 3a6 6 0 0 0-5.9551 5.334h-4.0449v10.666h10.666v-4.041a6 6 0 0 0 5.334-5.959 6 6 0 0 0-6-6zm0 1.334a4.6667 4.6667 0 0 1 4.666 4.666 4.6667 4.6667 0 0 1-4 4.6152v-5.2812h-5.2773a4.6667 4.6667 0 0 1 4.6113-4zm-8.666 5.332h2.707a6 6 0 0 0 5.293 5.2891v2.7109h-8v-8zm4.0508 0h3.9492v3.9453a4.6667 4.6667 0 0 1-3.9492-3.9453z" fill="currentColor"/>
<path class="ColorScheme-Text" d="m13 4.334a4.6667 4.6667 0 0 0-4.666 4.666 4.6667 4.6667 0 0 0 0.050781 0.66602h3.9492v3.9453a4.6667 4.6667 0 0 0 0.66602 0.054688 4.6667 4.6667 0 0 0 4.666-4.666 4.6667 4.6667 0 0 0-4.666-4.666zm-0.66602 9.2773a4.6667 4.6667 0 0 1-3.9492-3.9453h-4.0508v8h8v-4.0547z" fill="currentColor" fill-opacity=".6" stroke="naone"/>
</svg>
